apps/app.mento.org/public/tokens/PHPm.svg

<svg width="220" height="220" viewBox="0 0 220 220" fill="none" xmlns="http://www.w3.org/2000/svg">
<path d="M110 220C170.751 220 220 170.751 220 110C220 49.2487 170.751 0 110 0C49.2487 0 0 49.2487 0 110C0 170.751 49.2487 220 110 220Z" fill="#510DC1"/>
<path d="M110 23C158.049 23 197 61.9512 197 110C197 158.049 158.049 197 110 197C61.9512 197 23 158.049 23 110C23 61.9512 61.9512 23 110 23Z" stroke="url(#paint0_linear_2057_337)" stroke-width="36"/>
<path d="M110 23C158.049 23 197 61.9512 197 110C197 158.049 158.049 197 110 197C61.9512 197 23 158.049 23 110C23 61.9512 61.9512 23 110 23Z" stroke="url(#paint1_linear_2057_337)" stroke-width="36"/>
<path d="M110 202C160.81 202 202 160.81 202 110C202 59.1898 160.81 18 110 18C59.1898 18 18 59.1898 18 110C18 160.81 59.1898 202 110 202Z" fill="#510DC1"/>
<path d="M112.833 60C124.056 60 132.833 61.9524 139.167 65.8571C145.5 69.6667 149.722 75.0476 151.833 82H162V91.1429H153.333C153.444 91.8095 153.5 92.4762 153.5 93.1429C153.5 93.8095 153.5 94.4286 153.5 95C153.5 96.0476 153.444 97.0952 153.333 98.1429C153.333 99.1905 153.278 100.19 153.167 101.143H162V110.143H150.833C149.167 114.429 146.5 118.238 142.833 121.571C139.278 124.905 134.611 127.571 128.833 129.571C123.056 131.476 115.944 132.429 107.5 132.429H102V162H81.3333V110.143H70V101.143H81.3333V91.1429H70V82H81.3333V60H112.833ZM128.667 110.143H102V117.714H107C112.222 117.714 116.667 117.143 120.333 116C124 114.762 126.778 112.81 128.667 110.143ZM132.333 91.1429H102V101.143H132.167C132.389 100.286 132.5 99.4286 132.5 98.5714C132.5 97.619 132.5 96.6667 132.5 95.7143C132.5 94.8571 132.5 94.0952 132.5 93.4286C132.5 92.6667 132.444 91.9048 132.333 91.1429ZM112 74.7143H102V82H129.5C128.056 79.619 125.889 77.8095 123 76.5714C120.111 75.3333 116.444 74.7143 112 74.7143Z" fill="url(#paint2_linear_2057_337)"/>
<defs>
<linearGradient id="paint0_linear_2057_337" x1="110" y1="5" x2="110" y2="215" gradientUnits="userSpaceOnUse">
<stop stop-color="#FF0000"/>
<stop offset="1" stop-color="#569CFF"/>
</linearGradient>
<linearGradient id="paint1_linear_2057_337" x1="215" y1="110" x2="5" y2="110" gradientUnits="userSpaceOnUse">
<stop offset="0.5" stop-color="white" stop-opacity="0"/>
<stop offset="1" stop-color="white"/>
</linearGradient>
<linearGradient id="paint2_linear_2057_337" x1="116" y1="60" x2="116" y2="162" gradientUnits="userSpaceOnUse">
<stop stop-color="#E2DBFF"/>
<stop offset="0.975962" stop-color="#FBFAFF"/>
</linearGradient>
</defs>
</svg>

<svg xmlns="http://www.w3.org/2000/svg" width="220" height="220" fill="none" viewBox="0 0 220 220"><path fill="#510dc1" d="M110 220c60.751 0 110-49.249 110-110S170.751 0 110 0 0 49.249 0 110s49.249 110 110 110"/><path stroke="url(#a)" stroke-width="36" d="M110 23c48.049 0 87 38.951 87 87s-38.951 87-87 87-87-38.951-87-87 38.951-87 87-87Z"/><path stroke="url(#b)" stroke-width="36" d="M110 23c48.049 0 87 38.951 87 87s-38.951 87-87 87-87-38.951-87-87 38.951-87 87-87Z"/><path fill="#510dc1" d="M110 202c50.81 0 92-41.19 92-92s-41.19-92-92-92-92 41.19-92 92 41.19 92 92 92"/><path fill="url(#c)" d="M112.833 60q16.834 0 26.334 5.857 9.5 5.714 12.666 16.143H162v9.143h-8.667q.167 1 .167 2V95q0 1.571-.167 3.143a26 26 0 0 1-.166 3H162v9h-11.167q-2.5 6.429-8 11.428-5.333 5-14 8-8.666 2.858-21.333 2.858H102V162H81.333v-51.857H70v-9h11.333v-10H70V82h11.333V60zm15.834 50.143H102v7.571h5q7.833 0 13.333-1.714 5.5-1.857 8.334-5.857m3.666-19H102v10h30.167a10.2 10.2 0 0 0 .333-2.572V93.43q0-1.143-.167-2.286M112 74.714h-10V82h27.5q-2.166-3.571-6.5-5.429-4.334-1.857-11-1.857"/><defs><linearGradient id="a" x1="110" x2="110" y1="5" y2="215" gradientUnits="userSpaceOnUse"><stop stop-color="red"/><stop offset="1" stop-color="#569cff"/></linearGradient><linearGradient id="b" x1="215" x2="5" y1="110" y2="110" gradientUnits="userSpaceOnUse"><stop offset=".5" stop-color="#fff" stop-opacity="0"/><stop offset="1" stop-color="#fff"/></linearGradient><linearGradient id="c" x1="116" x2="116" y1="60" y2="162" gradientUnits="userSpaceOnUse"><stop stop-color="#e2dbff"/><stop offset=".976" stop-color="#fbfaff"/></linearGradient></defs></svg>
